icons/list-check.svg

<svg viewBox="0 0 24 24" fill="currentColor" xmlns="http://www.w3.org/2000/svg">
    <path d="M8 4H21V6H8V4ZM3 3.5H6V6.5H3V3.5ZM3 10.5H6V13.5H3V10.5ZM3 17.5H6V20.5H3V17.5ZM8 11H21V13H8V11ZM8 18H21V20H8V18Z"/>
</svg>

<svg xmlns="http://www.w3.org/2000/svg" viewBox="0 0 24 24">
    <g>
        <path fill="none" d="M0 0h24v24H0z"/>
        <path d="M8 4h13v2H8V4zm-5-.5h3v3H3v-3zm0 7h3v3H3v-3zm0 7h3v3H3v-3zM8 11h13v2H8v-2zm0 7h13v2H8v-2z"/>
    </g>
</svg>
